public/assets/header/tiktok.svg

<svg width='122' height='142' xmlns='http://www.w3.org/2000/svg'><path d='M88.794 0C91.142 20.15 102.41 32.164 122 33.442v22.664c-11.353 1.108-21.298-2.599-32.864-9.585v42.388c0 53.848-58.815 70.676-82.46 32.079C-8.52 96.15.786 52.57 49.528 50.823v23.9c-3.714.596-7.683 1.533-11.311 2.769-10.841 3.664-16.987 10.522-15.28 22.621 3.287 23.175 45.882 30.034 42.34-15.251V.042h23.517V0Z' fill='#FFF' fill-rule='evenodd'/></svg>

<svg width="122" height="142" viewBox="0 0 122 142" fill="none" xmlns="http://www.w3.org/2000/svg">
<path fill-rule="evenodd" clip-rule="evenodd" d="M88.794 0C91.142 20.15 102.41 32.164 122 33.442V56.106C110.647 57.214 100.702 53.507 89.136 46.521V88.909C89.136 142.757 30.321 159.585 6.676 120.988C-8.52 96.15 0.785999 52.57 49.528 50.823V74.723C45.814 75.319 41.845 76.256 38.217 77.492C27.376 81.156 21.23 88.014 22.937 100.113C26.224 123.288 68.819 130.147 65.277 84.862V0.042H88.794V0Z" fill="white"/>
</svg>
